picto/ramp-up-right-framed.svg

<svg class="color-immutable" width="30" height="30" viewBox="0 0 30 30" fill="none" xmlns="http://www.w3.org/2000/svg"><path d="M29.9999 0H0V29.9999H29.9999V0Z" fill="#2D327D"/><path d="M25.4999 2.99999C26.3249 2.99999 26.9999 3.67499 26.9999 4.49999V25.4999C26.9999 26.3249 26.3249 26.9999 25.4999 26.9999H4.49999C3.67499 26.9999 2.99999 26.3249 2.99999 25.4999V4.49999C2.99999 3.67499 3.67499 2.99999 4.49999 2.99999H25.4999ZM25.4999 2.62499H4.49999C3.46612 2.62499 2.62499 3.46612 2.62499 4.49999V25.4999C2.62499 26.5338 3.46612 27.3749 4.49999 27.3749H25.4999C26.5338 27.3749 27.3749 26.5338 27.3749 25.4999V4.49999C27.3749 3.46612 26.5338 2.62499 25.4999 2.62499Z" fill="white"/><path d="M9.24597 8.6267C8.52124 8.6267 7.9337 8.03848 7.9337 7.31413C7.9337 6.58963 8.52124 6.00156 9.24597 6.00156C9.97077 6.00156 10.5583 6.58963 10.5583 7.31413C10.5582 8.03855 9.97069 8.6267 9.24597 8.6267Z" fill="white"/><path d="M23.999 23.9999H9.6738V23.3372L23.999 21.0001V23.9999Z" fill="white"/><path d="M7.9488 19.2101V11.5126L7.12432 12.5624V15.3749C7.12432 15.644 6.9057 15.8625 6.63675 15.8625C6.3675 15.8625 6.14918 15.644 6.14918 15.3749V12.1812C6.14918 12.013 6.20528 11.85 6.30938 11.718L7.8948 9.70033C8.17927 9.3383 8.61412 9.12711 9.07379 9.12711C9.90194 9.12711 10.5742 9.79888 10.5742 10.627V15.6731L12.1165 17.216C12.2574 17.3565 12.3364 17.5471 12.3364 17.7462V21.6561C12.3364 22.0391 12.0259 22.3497 11.6429 22.3497C11.26 22.3497 10.9494 22.0391 10.9494 21.6561V18.2223L9.44924 16.7225V19.2243C9.44924 19.3723 9.40559 19.5173 9.32287 19.6404L6.94733 23.316C6.81968 23.5136 6.6006 23.6333 6.36465 23.6333C5.982 23.6333 5.67113 23.3227 5.67113 22.9393C5.67113 22.8059 5.71013 22.6751 5.7822 22.5628L7.9488 19.2101Z" fill="white"/><path d="M12.2803 14.5447C12.2213 14.5447 12.163 14.5347 12.1082 14.5145L11.2114 14.19V13.1132L12.4524 13.5627C12.6527 13.635 12.7868 13.8255 12.7868 14.0384C12.7867 14.3178 12.5598 14.5447 12.2803 14.5447Z" fill="white"/></svg>

<svg class="color-immutable" width="30" height="30" viewBox="0 0 30 30" fill="none" xmlns="http://www.w3.org/2000/svg"><path d="M30 0H0v30h30V0Z" fill="#2D327D"/><path d="M25.5 3c.825 0 1.5.675 1.5 1.5v21c0 .825-.675 1.5-1.5 1.5h-21c-.825 0-1.5-.675-1.5-1.5v-21C3 3.675 3.675 3 4.5 3h21Zm0-.375h-21A1.877 1.877 0 0 0 2.625 4.5v21c0 1.034.841 1.875 1.875 1.875h21a1.877 1.877 0 0 0 1.875-1.875v-21A1.877 1.877 0 0 0 25.5 2.625Z" fill="#fff"/><path d="M9.246 8.627A1.313 1.313 0 1 1 9.247 6a1.313 1.313 0 0 1-.001 2.626ZM23.999 24H9.674v-.663L23.999 21v3ZM7.949 19.21v-7.697l-.825 1.05v2.812a.488.488 0 0 1-.975 0V12.18c0-.168.056-.331.16-.463L7.895 9.7a1.5 1.5 0 0 1 2.68.927v5.046l1.542 1.543c.14.14.22.331.22.53v3.91a.694.694 0 1 1-1.388 0v-3.434l-1.5-1.5v2.502a.746.746 0 0 1-.126.416l-2.376 3.676a.693.693 0 1 1-1.165-.753L7.95 19.21Z" fill="#fff"/><path d="M12.28 14.545a.497.497 0 0 1-.172-.03l-.897-.325v-1.077l1.241.45a.506.506 0 0 1-.172.982Z" fill="#fff"/></svg>
